resources/icons/fire.svg

<svg viewBox="0 0 17 17" xmlns="http://www.w3.org/2000/svg">
<path d="M8.39917 1.56801C8.35137 1.32091 8.2073 1.10294 7.99869 0.962122C7.79008 0.821306 7.53404 0.769195 7.28698 0.817267L1.69745 1.9021C1.18399 2.00382 0.848759 2.5007 0.946677 3.01487L2.57463 11.3988C2.67448 11.9132 3.17238 12.2493 3.68681 12.1495L4.21083 12.0479" stroke="currentColor" stroke-width="1.6" stroke-linecap="round" stroke-linejoin="round"/>
<path fill-rule="evenodd" clip-rule="evenodd" d="M10.5765 4.0317C10.4442 3.97043 10.2876 3.9997 10.1864 4.10462C10.0852 4.20954 10.0616 4.36707 10.1276 4.49706C10.7934 5.90286 10.7404 7.5435 9.98523 8.90339C9.11818 8.97055 8.34746 8.35421 8.22233 7.49362C6.94518 8.19165 6.18879 9.56703 6.28332 11.0194C6.28383 13.3559 8.17802 15.2496 10.5145 15.2496C12.8376 15.2182 14.7133 13.3426 14.7447 11.0194C15.0234 8.03144 13.3381 5.20617 10.5765 4.0317Z" stroke="currentColor" stroke-width="1.6" stroke-linecap="round" stroke-linejoin="round"/>
</svg>

<svg viewBox="0 0 17 17" xmlns="http://www.w3.org/2000/svg"><path d="M8.4 1.568a.948.948 0 0 0-1.113-.75l-5.59 1.084a.953.953 0 0 0-.75 1.113l1.628 8.384c.1.514.597.85 1.112.75l.524-.101" stroke="currentColor" stroke-width="1.6" stroke-linecap="round" stroke-linejoin="round"/><path fill-rule="evenodd" clip-rule="evenodd" d="M10.576 4.032a.342.342 0 0 0-.448.465 4.824 4.824 0 0 1-.143 4.406 1.652 1.652 0 0 1-1.763-1.41 3.741 3.741 0 0 0-1.939 3.526 4.231 4.231 0 0 0 4.231 4.23 4.289 4.289 0 0 0 4.23-4.23 6.897 6.897 0 0 0-4.168-6.987Z" stroke="currentColor" stroke-width="1.6" stroke-linecap="round" stroke-linejoin="round"/></svg>
